src/assets/icons/ico_plumbing.svg

<?xml version="1.0" encoding="utf-8"?>
<!-- Generator: Adobe Illustrator 26.0.1, SVG Export Plug-In . SVG Version: 6.00 Build 0)  -->
<svg version="1.1" id="Layer_1" xmlns="http://www.w3.org/2000/svg" xmlns:xlink="http://www.w3.org/1999/xlink" x="0px" y="0px"
	 viewBox="0 0 64 64" style="enable-background:new 0 0 64 64;" xml:space="preserve">
<style type="text/css">
	.st0{fill:#43BBC4;}
</style>
<path class="st0" d="M16.2041,53.3662h20.542h2.4941h8.5547c0.7266,0,1.3174-0.5918,1.3174-1.3184v-5.4775v-2.1357V34.3789h4.2471
	c1.1416,0,1.5205-0.502,1.6445-0.8018c0.124-0.2988,0.2109-0.9219-0.5967-1.7285l-7.668-7.6694V17.269c0-0.2764-0.2236-0.5-0.5-0.5
	h-6.9158l-5.2902-5.2979c-1.1221-1.1196-2.9453-1.1182-4.0635,0.0005L9.5918,31.8481c-0.8066,0.8081-0.7188,1.4302-0.5947,1.73
	c0.124,0.2988,0.5029,0.8008,1.6445,0.8008h4.2441v17.6689C14.8857,52.7744,15.4775,53.3662,16.2041,53.3662z M33.2393,38.3691
	h-2.4785H29.25c-0.1738,0-0.3154-0.1406-0.3154-0.3145v-5.5005c0-0.1738,0.1416-0.3149,0.3154-0.3149h5.5
	c0.1738,0,0.3154,0.1411,0.3154,0.3149v5.5005c0,0.1738-0.1416,0.3145-0.3154,0.3145H33.2393z M31.2607,39.3691h1.4785v5.0654
	c0,0.2764,0.2236,0.5,0.5,0.5h14.873v1.1357H32.0947c-0.46,0-0.834-0.374-0.834-0.834V39.3691z M9.9209,33.1943
	c-0.0166-0.0381,0-0.2612,0.3779-0.6396l20.3779-20.376c0.7305-0.7295,1.9189-0.7295,2.6494,0l5.4359,5.4432
	c0.0463,0.0464,0.1017,0.0833,0.1633,0.1086c0.0556,0.0229,0.1147,0.033,0.1739,0.035c0.006,0.0002,0.0109,0.0034,0.0169,0.0034
	h6.623v6.6172c0,0.0651,0.0132,0.1298,0.0385,0.1909c0.0255,0.0615,0.0623,0.1169,0.1086,0.1632l7.8138,7.8153
	c0.3779,0.3779,0.3955,0.6006,0.3799,0.6387c-0.0166,0.0391-0.1855,0.1846-0.7207,0.1846h-4.7471c-0.2764,0-0.5,0.2236-0.5,0.5
	v10.0557h-14.373v-4.5654H34.75c0.7256,0,1.3154-0.5898,1.3154-1.3145v-5.5005c0-0.7251-0.5898-1.3149-1.3154-1.3149h-5.5
	c-0.7256,0-1.3154,0.5898-1.3154,1.3149v5.5005c0,0.7246,0.5898,1.3145,1.3154,1.3145h1.0107v5.8672
	c0,1.0117,0.8223,1.834,1.834,1.834h16.0176v4.9775c0,0.1729-0.1455,0.3184-0.3174,0.3184h-8.5547h-2.4941h-20.542
	c-0.1729,0-0.3184-0.1455-0.3184-0.3184V33.8789c0-0.2764-0.2236-0.5-0.5-0.5h-4.7441
	C10.1064,33.3789,9.9365,33.2334,9.9209,33.1943z"/>
<path class="st0" d="M33.2402,32.9111h-2.4805c-0.2764,0-0.5,0.2236-0.5,0.5v3.7861c0,0.2764,0.2236,0.5,0.5,0.5h2.4805
	c0.2764,0,0.5-0.2236,0.5-0.5v-3.7861C33.7402,33.1348,33.5166,32.9111,33.2402,32.9111z M32.7402,33.9111v0.8936h-1.4805v-0.8936
	H32.7402z M31.2598,36.6973v-0.8926h1.4805v0.8926H31.2598z"/>
</svg>

<?xml version="1.0" encoding="UTF-8" standalone="no"?>
<!DOCTYPE svg PUBLIC "-//W3C//DTD SVG 1.1//EN" "http://www.w3.org/Graphics/SVG/1.1/DTD/svg11.dtd">
<svg width="100%" height="100%" viewBox="0 0 65 65" version="1.1" xmlns="http://www.w3.org/2000/svg" xmlns:xlink="http://www.w3.org/1999/xlink" xml:space="preserve" xmlns:serif="http://www.serif.com/" style="fill-rule:evenodd;clip-rule:evenodd;stroke-linejoin:round;stroke-miterlimit:2;">
    <g transform="matrix(1,0,0,1,-219,-244)">
        <g transform="matrix(0.0625,0,0,0.0833333,219.535,244.05)">
            <rect id="ico_plumbing" x="0" y="0" width="1024" height="768" style="fill:none;"/>
            <g id="ico_plumbing1" serif:id="ico_plumbing">
                <g id="ico_plumbing.svg" transform="matrix(16,0,0,12,512,378.145)">
                    <g transform="matrix(1,0,0,1,-32,-32)">
                        <g>
                            <path d="M16.204,53.366L47.795,53.366C48.521,53.366 49.112,52.774 49.112,52.048L49.112,34.379L53.359,34.379C54.501,34.379 54.88,33.877 55.004,33.577C55.128,33.278 55.215,32.655 54.407,31.849L46.739,24.179L46.739,17.269C46.739,16.993 46.516,16.769 46.239,16.769L39.323,16.769L34.033,11.471C32.911,10.351 31.088,10.353 29.97,11.472L9.592,31.848C8.785,32.656 8.873,33.278 8.997,33.578C9.121,33.877 9.5,34.379 10.642,34.379L14.886,34.379L14.886,52.048C14.886,52.774 15.477,53.366 16.204,53.366ZM34.75,38.369L29.25,38.369C29.076,38.369 28.935,38.229 28.935,38.055L28.935,32.554C28.935,32.38 29.076,32.239 29.25,32.239L34.75,32.239C34.924,32.239 35.065,32.38 35.065,32.554L35.065,38.055C35.065,38.228 34.924,38.369 34.75,38.369ZM31.261,39.369L32.739,39.369L32.739,44.435C32.739,44.711 32.963,44.935 33.239,44.935L48.112,44.935L48.112,46.07L32.095,46.07C31.635,46.07 31.261,45.696 31.261,45.236L31.261,39.369ZM9.921,33.194C9.904,33.156 9.921,32.933 10.299,32.555L30.677,12.179C31.407,11.449 32.596,11.449 33.326,12.179L38.762,17.622C38.808,17.668 38.864,17.705 38.925,17.73C38.981,17.753 39.04,17.763 39.099,17.765C39.105,17.766 39.11,17.769 39.116,17.769L45.739,17.769L45.739,24.386C45.739,24.451 45.752,24.516 45.778,24.577C45.803,24.638 45.84,24.694 45.886,24.74L53.7,32.555C54.078,32.933 54.096,33.156 54.08,33.194C54.063,33.233 53.894,33.379 53.359,33.379L48.612,33.379C48.336,33.379 48.112,33.602 48.112,33.879L48.112,43.935L33.739,43.935L33.739,39.369L34.75,39.369C35.476,39.369 36.065,38.779 36.065,38.055L36.065,32.554C36.065,31.829 35.476,31.239 34.75,31.239L29.25,31.239C28.524,31.239 27.935,31.829 27.935,32.554L27.935,38.055C27.935,38.779 28.524,39.369 29.25,39.369L30.261,39.369L30.261,45.236C30.261,46.248 31.083,47.07 32.095,47.07L48.112,47.07L48.112,52.048C48.112,52.221 47.967,52.366 47.795,52.366L16.204,52.366C16.031,52.366 15.886,52.221 15.886,52.048L15.886,33.879C15.886,33.603 15.662,33.379 15.386,33.379L10.642,33.379C10.106,33.379 9.937,33.233 9.921,33.194Z" style="fill:rgb(26,91,87);fill-rule:nonzero;"/>
                            <path d="M33.24,32.911L30.76,32.911C30.483,32.911 30.26,33.135 30.26,33.411L30.26,37.197C30.26,37.474 30.483,37.697 30.76,37.697L33.24,37.697C33.517,37.697 33.74,37.474 33.74,37.197L33.74,33.411C33.74,33.135 33.517,32.911 33.24,32.911ZM32.74,33.911L32.74,34.805L31.26,34.805L31.26,33.911L32.74,33.911ZM31.26,36.697L31.26,35.805L32.74,35.805L32.74,36.697L31.26,36.697Z" style="fill:rgb(26,91,87);fill-rule:nonzero;"/>
                        </g>
                    </g>
                </g>
            </g>
        </g>
    </g>
</svg>
